_includes/icons/ios-back.svg

<svg fill="#666" height="50" viewBox="0 0 50 50" width="50" xmlns="http://www.w3.org/2000/svg"><path d="m34.980469 3.992188c-.261719.003906-.507813.113281-.6875.300781l-20 20c-.390625.390625-.390625 1.023437 0 1.414062l20 20c.25.261719.625.367188.972656.273438.351563-.089844.625-.363281.714844-.714844.09375-.347656-.011719-.722656-.273438-.972656l-19.292968-19.292969 19.292968-19.292969c.296875-.289062.382813-.726562.222657-1.105468-.160157-.382813-.535157-.625-.949219-.609375z"/></svg>

<svg xmlns="http://www.w3.org/2000/svg" viewBox="0 0 50 50" width="50" height="50" fill="#666"><path d="M 34.980469 3.992188 C 34.71875 3.996094 34.472656 4.105469 34.292969 4.292969 L 14.292969 24.292969 C 13.902344 24.683594 13.902344 25.316406 14.292969 25.707031 L 34.292969 45.707031 C 34.542969 45.96875 34.917969 46.074219 35.265625 45.980469 C 35.617188 45.890625 35.890625 45.617188 35.980469 45.265625 C 36.074219 44.917969 35.96875 44.542969 35.707031 44.292969 L 16.414063 25 L 35.707031 5.707031 C 36.003906 5.417969 36.089844 4.980469 35.929688 4.601563 C 35.769531 4.21875 35.394531 3.976563 34.980469 3.992188 Z"/></svg>
